X: 3
T: Micho's March
M: 4/4
L: 1/8
R: polka / march
N: Transposed from Bb to D
K: Dmaj
B |:\ 
A2 A>A | AA A/B/A/G/ | FA de | f>g f/e/d/B/ |
FA/>A/ AB | A2 A (3B/c/d/ | e/f/e/d/ ef |[1 d2 dB :|[2 d2 dz ||
K: Amix
gg/g/ eg/g/ | ff df | gg/g/ eg | fd BA |
g>g ee/g/ | ff d/e/f/g/ | a>a ab | aa- a/g/f |
g>g ee/e/ | ff df | gg/g/ e>e | fd BA |
g>g e>e | ff d/e/f/g/ | a>a ab | a2 a/g/f |]
